X: 38209
T: Springtime
R: jig
M: 6/8
K: Gmajor
G(GA) (BA)G|A(GE) (ED)D|G(GA) (BA)G|(ABA) (d2E/F/)|
G(GA) (BA)G|A(GE) (ED)D|EFG D(GB)|AGF G3||
(gd.g) (fd.f)|(ec.e) d3|gfg (d2g/a/)|bgb a3|
(gd.g) (fd.f)|(ec.e) d3|efg d(gb)|agf g3||

